configs/network-logos/stability-dark.svg

<svg width="114" height="24" viewBox="0 0 114 24" fill="none" xmlns="http://www.w3.org/2000/svg">
<mask id="mask0_10910_14721" style="mask-type:luminance" maskUnits="userSpaceOnUse" x="0" y="2" width="114" height="20">
<path d="M113.953 2H0V22H113.953V2Z" fill="white"/>
</mask>
<g mask="url(#mask0_10910_14721)">
<path d="M26.302 16.7637C27.4357 16.7637 28.2202 16.5931 28.6546 16.2513C29.0889 15.9093 29.3058 15.4092 29.3058 14.7486C29.3058 14.2065 29.14 13.7793 28.8077 13.4671C28.4755 13.1548 27.9663 12.9518 27.2789 12.8571L24.4919 12.4682C22.4169 12.1856 21.3793 11.1311 21.3793 9.30461C21.3793 8.26814 21.7775 7.42828 22.5737 6.78572C23.37 6.1439 24.54 5.82227 26.0844 5.82227C27.6289 5.82227 28.8988 6.16703 29.7128 6.85656C30.5269 7.54609 30.9768 8.45609 31.0611 9.58721H29.2518C29.1548 8.84493 28.8477 8.26744 28.3289 7.8547C27.8102 7.44274 27.0561 7.236 26.0667 7.236C25.0773 7.236 24.4223 7.416 23.9583 7.77521C23.4936 8.13442 23.2612 8.62665 23.2612 9.25112C23.2612 9.69926 23.3937 10.0672 23.6594 10.3555C23.9243 10.6447 24.3291 10.8304 24.8723 10.9121L27.822 11.3363C28.9195 11.4896 29.755 11.8228 30.3285 12.3352C30.9013 12.8477 31.1884 13.5755 31.1884 14.518C31.1884 16.9574 29.5596 18.1767 26.302 18.1767C24.4682 18.1767 23.1288 17.7792 22.2844 16.9834C21.44 16.1876 21.0175 15.1779 21.0175 13.9521H22.8269C22.8868 15.8255 24.0456 16.7622 26.3013 16.7622L26.302 16.7637Z" fill="white"/>
<path d="M36.0027 7.60824H31.8223V6.14099H42.0295V7.60824H37.8668V17.8955H36.0027V7.60824Z" fill="white"/>
<path d="M50.8799 17.8948L49.8125 15.102H43.9852L42.9174 17.8948H41.0355L45.5053 6.14026H48.3101L52.7799 17.8948H50.8799ZM49.2515 13.6347L46.899 7.43041L44.5462 13.6347H49.2515Z" fill="white"/>
<path d="M54.2258 6.14099H60.3607C61.5551 6.14099 62.4356 6.40625 63.0026 6.93675C63.5695 7.46731 63.8528 8.16261 63.8528 9.0227C63.8528 9.82428 63.6235 10.4632 63.1654 10.9402C62.7068 11.4173 62.1458 11.7093 61.4826 11.8155C62.2305 11.9218 62.8398 12.2195 63.3105 12.7081C63.7812 13.1975 64.0165 13.8661 64.0165 14.7146C64.0165 15.6925 63.6937 16.4673 63.0486 17.039C62.403 17.6107 61.4649 17.8962 60.2342 17.8962H54.2258V6.14099ZM59.6909 11.1434C60.4509 11.1434 61.0091 10.9959 61.3649 10.7017C61.7207 10.4075 61.8984 9.95363 61.8984 9.34075C61.8984 8.72782 61.7533 8.30066 61.464 8.02382C61.1747 7.74698 60.6616 7.60824 59.9254 7.60824H56.0891V11.1434H59.6909ZM60.0165 16.4283C60.7161 16.4283 61.2319 16.249 61.564 15.8891C61.8956 15.5299 62.0621 15.0673 62.0621 14.5014C62.0621 13.1577 61.2714 12.4863 59.6909 12.4863H56.0891V16.4276H60.0165V16.4283Z" fill="white"/>
<path d="M65.8264 16.4283H68.2878V7.60824H65.8264V6.14099H72.6134V7.60824H70.152V16.4283H72.6134V17.8955H65.8264V16.4283Z" fill="white"/>
<path d="M74.8763 6.14099H76.7405V16.4283H82.8391V17.8955H74.8763V6.14099Z" fill="white"/>
<path d="M84.1061 16.4283H86.5675V7.60824H84.1061V6.14099H90.8931V7.60824H88.4317V16.4283H90.8931V17.8955H84.1061V16.4283Z" fill="white"/>
<path d="M96.3389 7.60824H92.1584V6.14099H102.365V7.60824H98.2026V17.8955H96.3389V7.60824Z" fill="white"/>
<path d="M105.05 6.14099L107.493 10.6836L108.434 12.4161C108.76 11.8856 109.086 11.3088 109.411 10.6836L111.872 6.14099H113.953L109.375 14.007V17.8955H107.511V14.007L102.932 6.14099H105.05H105.05Z" fill="white"/>
<path fill-rule="evenodd" clip-rule="evenodd" d="M7.94866 12.9753L16.1018 17.5644L7.94854 22.1143L-0.20459 17.5526L7.94866 12.9753ZM0.204489 17.5523L7.94866 21.8852L15.6927 17.5636L7.94854 13.2048L0.204489 17.5523Z" fill="white"/>
<path d="M0 6.46228L7.94865 10.8987V19.7354L0 15.3828V6.46228Z" fill="#3E7CB1"/>
<path d="M15.8974 6.474L7.94873 10.9097V19.7471L15.8974 15.3945V6.474Z" fill="#30C5FF"/>
<path d="M0 6.46243L7.94865 2L15.8973 6.474L7.94865 10.9097L0 6.46243Z" fill="#41EEF9"/>
</g>
</svg>

<svg xmlns="http://www.w3.org/2000/svg" fill="none" viewBox="0 0 114 24">
  <mask id="stability-dark_svg__a" width="114" height="20" x="0" y="2" maskUnits="userSpaceOnUse" style="mask-type:luminance">
    <path fill="#fff" d="M113.953 2H0v20h113.953V2Z"/>
  </mask>
  <g mask="url(#stability-dark_svg__a)">
    <path fill="#fff" d="M26.302 16.764c1.134 0 1.918-.17 2.353-.513.434-.342.65-.842.65-1.502 0-.543-.165-.97-.497-1.282-.332-.312-.842-.515-1.53-.61l-2.786-.389c-2.075-.282-3.113-1.337-3.113-3.163 0-1.037.398-1.877 1.195-2.52.796-.641 1.966-.963 3.51-.963 1.545 0 2.815.345 3.629 1.035.814.69 1.264 1.6 1.348 2.73h-1.81c-.096-.742-.403-1.32-.922-1.732-.519-.412-1.273-.619-2.262-.619-.99 0-1.645.18-2.109.54-.464.358-.697.85-.697 1.475 0 .448.133.816.398 1.104.265.29.67.475 1.213.557l2.95.424c1.098.154 1.933.487 2.506 1 .573.512.86 1.24.86 2.182 0 2.44-1.628 3.659-4.886 3.659-1.834 0-3.173-.398-4.018-1.194-.844-.795-1.267-1.805-1.267-3.03h1.81c.06 1.873 1.219 2.81 3.474 2.81h.001Zm9.701-9.156h-4.18V6.141h10.206v1.467h-4.162v10.287h-1.864V7.608ZM50.88 17.895l-1.068-2.793h-5.827l-1.068 2.793h-1.882l4.47-11.755h2.805l4.47 11.755h-1.9Zm-1.629-4.26L46.9 7.43l-2.353 6.205h4.706Zm4.975-7.494h6.135c1.194 0 2.075.265 2.642.796.566.53.85 1.226.85 2.086 0 .801-.23 1.44-.688 1.917-.458.477-1.02.77-1.682.876.748.106 1.357.403 1.828.892.47.49.705 1.158.705 2.007 0 .978-.322 1.752-.967 2.324-.646.572-1.584.857-2.815.857h-6.008V6.141Zm5.465 5.002c.76 0 1.318-.147 1.674-.441.356-.294.533-.748.533-1.361s-.145-1.04-.434-1.317c-.29-.277-.802-.416-1.539-.416H56.09v3.535h3.602Zm.325 5.285c.7 0 1.216-.179 1.548-.539.332-.36.498-.822.498-1.388 0-1.343-.79-2.015-2.371-2.015h-3.602v3.942h3.928Zm5.81 0h2.462v-8.82h-2.462V6.141h6.787v1.467h-2.461v8.82h2.461v1.467h-6.787v-1.467Zm9.05-10.287h1.864v10.287h6.1v1.467h-7.964V6.141Zm9.23 10.287h2.462v-8.82h-2.462V6.141h6.787v1.467h-2.461v8.82h2.461v1.467h-6.787v-1.467Zm12.233-8.82h-4.18V6.141h10.206v1.467h-4.162v10.287h-1.864V7.608Zm8.711-1.467 2.443 4.543.941 1.732c.326-.53.652-1.107.977-1.732l2.461-4.543h2.081l-4.578 7.866v3.888h-1.864v-3.888l-4.579-7.866h2.118Z"/>
    <path fill="#fff" fill-rule="evenodd" d="m7.949 12.975 8.153 4.59-8.153 4.55-8.154-4.562 8.154-4.578ZM.204 17.552l7.745 4.333 7.744-4.321-7.744-4.36-7.745 4.348Z" clip-rule="evenodd"/>
    <path fill="#3E7CB1" d="M0 6.462 7.949 10.9v8.836L0 15.383v-8.92Z"/>
    <path fill="#30C5FF" d="M15.897 6.474 7.95 10.91v8.837l7.948-4.352V6.474Z"/>
    <path fill="#41EEF9" d="M0 6.462 7.949 2l7.948 4.474L7.95 10.91 0 6.462Z"/>
  </g>
</svg>
